X: 614
T: Doth Not a Meeting Like This?
T: ann ne na.c tea.gmail mar seo?
R:air
N:"Gaily."
B:O'Neill's 614
Z:Transcribed by John Walsh (walsh@math.ubc.ca)
M:2/4
L:1/8
%Q:110
K:G
D|(G>AG) (B>AB)|(G>Bd) e2 d|(g>fe) (edB)|(B<AA) A2 D|
(G>AG) (B>AB)|(G>Bd) e2 d|(g>fe) (edB)|(cEF) G2||
d|(d>ef) (gfe)|(a>ge) (edB)|(d>ef) gdB|BAA HA2 d|
(G>AG) (B>AB)|(G>Bd) e2 d|(g>fe) (edB)|(cEF) G2||


